X:5
M:6/4
L:1/4
Q:3/4=85
K:GMin
EFGF2c/4d/4e/ | f2edBc/4d/4e/ | c3BB2 ||
b | a2bc'ab | g2ab2d | edce2f | gG2c2f |
g2abgc' | a>gfbfg | f>edcdB | c3BB2 |]

